X: 22396
T: Lad O'Beirne's Favourite
R: reel
M: 4/4
K: Dmajor
Bc|d2EF AFEF|dFBF A2Bc|d2EF AFEF|DB{/c}BA B3c|
d2EF AFEF|dFBF A2Bc|{/d}cBBA BAFE|DAdc BABc||
defd edfd|defd fa~af|fgfd edfd|Bd~cA BABc|
defd edfd|defd fa~af|abaf {/a}gfed|Bd~cA BABc||

